raw-svg/volume-up.svg

<svg viewBox="0 0 24 24" xmlns="http://www.w3.org/2000/svg"><path d="m13 19.75a.81.81 0 0 1 -.47-.16l-4.79-3.84h-4.74a.76.76 0 0 1 -.75-.75v-6a.76.76 0 0 1 .75-.75h4.74l4.79-3.84a.75.75 0 0 1 1.22.59v14a.76.76 0 0 1 -.43.68.71.71 0 0 1 -.32.07zm-9.25-5.5h4.25a.78.78 0 0 1 .47.16l3.78 3v-10.85l-3.78 3a.78.78 0 0 1 -.47.19h-4.25z"/><path d="m18.46 18.07a.76.76 0 0 1 -.49-.18.74.74 0 0 1 -.07-1.06 7.24 7.24 0 0 0 0-9.66.75.75 0 1 1 1.12-1 8.7 8.7 0 0 1 0 11.64.72.72 0 0 1 -.56.26z"/><path d="m16.11 15.38a.78.78 0 0 1 -.45-.15.75.75 0 0 1 -.15-1.05 3.6 3.6 0 0 0 0-4.36.75.75 0 0 1 1.2-.9 5.07 5.07 0 0 1 0 6.16.77.77 0 0 1 -.6.3z"/></svg>

<svg xmlns="http://www.w3.org/2000/svg" viewBox="0 0 24 24"><g id="volume-up"><path d="M13,19.75a.81.81,0,0,1-.47-.16L7.74,15.75H3A.76.76,0,0,1,2.25,15V9A.76.76,0,0,1,3,8.25H7.74l4.79-3.84A.75.75,0,0,1,13.75,5V19a.76.76,0,0,1-.43.68A.71.71,0,0,1,13,19.75Zm-9.25-5.5H8a.78.78,0,0,1,.47.16l3.78,3V6.56l-3.78,3A.78.78,0,0,1,8,9.75H3.75Z"/><path d="M18.46,18.07a.76.76,0,0,1-.49-.18.74.74,0,0,1-.07-1.06,7.24,7.24,0,0,0,0-9.66.75.75,0,1,1,1.12-1,8.7,8.7,0,0,1,0,11.64A.72.72,0,0,1,18.46,18.07Z"/><path d="M16.11,15.38a.78.78,0,0,1-.45-.15.75.75,0,0,1-.15-1.05,3.6,3.6,0,0,0,0-4.36.75.75,0,0,1,1.2-.9,5.07,5.07,0,0,1,0,6.16A.77.77,0,0,1,16.11,15.38Z"/></g></svg>
